X: 279
T: Memories of Monk's
C: BB 3/09
N: 132272
L: 1/8
M: 6/8
R: jig 
Q: 1/4=170
K: Bm
A | "Bm"BcB BAF | "Bm"BcB BAF | "D"DFA dcd | "Bm"fdB "A"cBA |
"Bm"BcB BAF | "G"Bcd efg | "Bm"fdB "A"ecA | "Bm"Bcd B2 :|
A | "D"dff "Em"ede | "D"fga "A"ece | "D"faf "Em"efg | "D"afd "A"e2A |
"D"dff "Em"ede | "D"fgf "A"ecA | "Bm"fdB "G"GBd | "A"ecA "Bm"B2 :|
%%%%%
